!!!!SEGMENT: pl-kk--kk-i-2--040_anonim--audi-virgo-gregem-tibi.krn
!!!cenid: 16xx:1660
!!!COM: Anonim
!!!COM-rismid: pe30004985
!!!CDT:
!!!CNT:
!!!OTL: Audi virgo gregem tibi
!!!PDT:
!!!AGN: Sacred
!!!SMS-siglum: PL-Kk
!!!SMS-shelfmark: Kk.I.2
!!!SMS-shelfwork: 040 W
!!!NIFC-rismid: 300258058
!!!URL-scan: http://repozytorium.nifc.pl/skany/pl-kk-nut--i-2
!!!ONB-nifc: skany: C: 0061-0062; A: 0164-0165; T: 0266-0267; B: 0364-0365;
!!!key: C:lyd
**kern	**text	**kern	**text	**kern	**text	**kern	**text
*part4	*part4	*part3	*part3	*part2	*part2	*part1	*part1
*staff4	*staff4	*staff3	*staff3	*staff2	*staff2	*staff1	*staff1
*I"BASVS	*	*I"TENOR	*	*I"ALTVS	*	*I"DISCANTVS	*
*I'B	*	*I'T	*	*I'A	*	*I'S	*
*Ibass	*	*Itenor	*	*Ialto	*	*Isoprn	*
*ICvox	*	*ICvox	*	*ICvox	*	*ICvox	*
*clefF4	*	*clefC4	*	*clefC3	*	*clefC1	*
*k[b-]	*	*k[b-]	*	*k[b-]	*	*k[b-]	*
*F:	*	*F:	*	*F:	*	*F:	*
*M2/1	*	*M2/1	*	*M2/1	*	*M2/1	*
*met(C|)	*	*met(C|)	*	*met(C|)	*	*met(C|)	*
=1-	=1-	=1-	=1-	=1-	=1-	=1-	=1-
1C	Au-	1r	.	0r	.	0r	.
2D/	-di	1F	Au-	.	.	.	.
1F\	vir-	.	.	.	.	.	.
=2-	=2-	=2-	=2-	=2-	=2-	=2-	=2-
.	.	1G	-di	1c	Au-	1r	.
2E/	-go	.	.	.	.	.	.
1D	gre-	1B-	vir-	2d/	-di	1f	Au-
.	.	.	.	1f\	vir-	.	.
=3-	=3-	=3-	=3-	=3-	=3-	=3-	=3-
1C	-ge(m)	2G/	-go	.	.	1g	-di
.	.	2.c\	gre-	2e\	-go	.	.
1G	au-	.	.	1d	gre-	1b-	vir-
.	.	8B-/	.	.	.	.	.
.	.	8A/	.	.	.	.	.
.	.	2B-/	.	.	.	.	.
=4-	=4-	=4-	=4-	=4-	=4-	=4-	=4-
2.C/	-di	1c	-gem	1c	-gem	2.g/	-go
4D/	.	.	.	.	.	4f/	.
2E-X/	.	2r	.	1r	.	4g/	.
.	.	.	.	.	.	4a/	.
*	*	*	*ij	*	*	*	*
2D/	v(ir)-	2F/	Au-	.	.	1b-\	.
=5-	=5-	=5-	=5-	=5-	=5-	=5-	=5-
2E-y/	-go	2G/	-di	2r	.	.	.
2F/	gre-	2A/	vir-	2c/	ti-	2a/	gre-
1BB-	-ge(m)	2F/	-go	2d/	-bi	2b-\	-gem
.	.	2F/	gre-	2d/	lau-	2f/	ti-
=6-	=6-	=6-	=6-	=6-	=6-	=6-	=6-
2r	.	1C	-gem	2c/	-des	2g/	-bi
*	*	*	*Xij	*	*	*	*
2C/	ti-	.	.	1c	ca-	2g/	lau-
2D/	-bi	2rF	.	.	.	2f/	-des
2D/	lau-	2F/	ti-	2B-/	-nen-	1f/	ca-
=7-	=7-	=7-	=7-	=7-	=7-	=7-	=7-
2.C/	-des	2G/	-bi	1.c	-tem	.	.
.	.	2G/	lau-	.	.	2e/	-nen-
4BB-/	.	.	.	.	.	.	.
2AA/	.	2F/	-des	.	.	1f	-tem
*	*	*	*	*	*ij	*	*
2BB-/	ca-	1D/	ca-	4d/	ti-	.	.
.	.	.	.	4c/	-bi	.	.
=8-	=8-	=8-	=8-	=8-	=8-	=8-	=8-
1GG	-nen-	.	.	4B-/	lau-	1b-	.
.	.	.	.	4A/	-des	.	.
.	.	2E/	-ne(n)-	2G/	ca-	.	.
!LO:SIC:v:t=custos F	!	!LO:SIC:v:t=custos c	!	!	!	!	!
[1FFl	-tem	[1Fl\	-te(m)	2.A/	-nen-	[1al	.
.	.	.	.	4B-/	.	.	.
=9-	=9-	=9-	=9-	=9-	=9-	=9-	=9-
!	!	!	!	!LO:SIC:v:t=custos f	!	!LO:SIC:v:t=custos cc	!
0FF]	.	0F]	.	0cl	-tem	0a]	.
*	*	*	*	*	*Xij	*	*
!LO:LB:g=original	!	!LO:LB:g=original	!	!LO:LB:g=original	!	!LO:LB:g=original	!
=10||	=10||	=10||	=10||	=10||	=10||	=10||	=10||
00r	.	0r	.	1r	.	1cc	Con-
.	.	.	.	1f	Con-	2a\	-cep-
.	.	.	.	.	.	2cc\	-tu(m)
=11-	=11-	=11-	=11-	=11-	=11-	=11-	=11-
.	.	1r	.	2d\	-cep-	2dd\	tu-
.	.	.	.	2f\	-tu(m)	2a/	-u(m)
.	.	1c	Con-	2g\	.	1.cc	con-
.	.	.	.	2.e\	tu-	.	.
=12-	=12-	=12-	=12-	=12-	=12-	=12-	=12-
1r	.	1A	-cep-	.	.	.	.
.	.	.	.	4c/	-u(m)	.	.
.	.	.	.	2f\	con-	4b-\	.
.	.	.	.	.	.	4a\	.
2r	.	1c	-tu(m)	2e\	-cep-	2g/	.
2F\	Con-	.	.	1f\	-tu(m)	2a/	-cep-
=13-	=13-	=13-	=13-	=13-	=13-	=13-	=13-
1D	-cep-	1d	tu-	.	.	2f/	-tu(m)
.	.	.	.	4e\	.	2b-\	tu-
.	.	.	.	4d\	tu-	.	.
1F	-tu(m)	1A	-u(m)	2c/	-u(m)	4a/	.
.	.	.	.	.	.	4g/	.
.	.	.	.	1d\	prę-	1a\	.
=14-	=14-	=14-	=14-	=14-	=14-	=14-	=14-
1G	tu-	0r	.	.	.	.	.
.	.	.	.	4c/	.	2g/	-u(m)
.	.	.	.	4B-/	.	.	.
2D/	-u(m)	.	.	2d/	-cla-	1a	.
2F\	prae-	.	.	2c/	-ru(m)	.	.
=15-	=15-	=15-	=15-	=15-	=15-	=15-	=15-
1F	-cla-	1c	prae-	2r	.	2.a\	prae-
.	.	.	.	2f\	in	.	.
.	.	.	.	.	.	4b-\	.
2C/	-ru(m)	1c	-cla-	4g\	v-	4cc\	.
.	.	.	.	4g\	-ni-	4dd\	.
2F\	in	.	.	2a\	-o-	1cc\	-cla-
=16-	=16-	=16-	=16-	=16-	=16-	=16-	=16-
2G\	v-	1G	-ru(m)	2d/	-ne	.	.
2G\	-ni-	.	.	2.e\	ſan-	2b-\	-ru(m)
1A	-o-	2r	.	.	.	1cc	.
.	.	.	.	4c/	.	.	.
.	.	2c\	in	1f\	.	.	.
=17-	=17-	=17-	=17-	=17-	=17-	=17-	=17-
1D	-ne	2d\	v-	.	.	2r	.
.	.	2d\	-ni-	4e\	.	2f/	in
.	.	.	.	4d\	.	.	.
1r	.	1e	-o-	2c/	-ctu(m)	2g/	v-
.	.	.	.	2c/	in	2g/	-nio-
=18-	=18-	=18-	=18-	=18-	=18-	=18-	=18-
!	!	!	!	!LO:SIC:v:t=custos d	!	!	!
2r	.	1A	-ne	2d/	v-	1a	-ne
*	*ij	*	*	*	*	*	*
!	!	!	!	!LO:LB:g=original	!	!	!
2F\	in	.	.	2d/	-nio-	.	.
!	!	!	!	!	!	!LO:SIC:v:t=custos g	!
2G\	v-	1B-	ſan-	2d/	-ne	2d/	.
!	!	!	!	!	!	!LO:LB:g=original	!
2G\	-ni-	.	.	2G/	.	2.g/	ſan-
=19-	=19-	=19-	=19-	=19-	=19-	=19-	=19-
2A\	-o-	[0cl	-ctu(m)	4F/	ſan-	.	.
.	.	.	.	4G/	.	4f/	.
2F\	-ne	.	.	4A/	.	1f	.
*	*Xij	*	*	*	*	*	*
.	.	.	.	4F/	.	.	.
1C	ſan-	.	.	1G	.	.	.
.	.	.	.	.	.	2e/	.
=20-	=20-	=20-	=20-	=20-	=20-	=20-	=20-
0Fl	-ctu(m)	0c]	.	0Al	-ctu(m)	0fl	-ctu(m)
=21||	=21||	=21||	=21||	=21||	=21||	=21||	=21||
00r	.	1F	Quo-	0r	.	0r	.
.	.	1G	-ru(m)	.	.	.	.
=22-	=22-	=22-	=22-	=22-	=22-	=22-	=22-
.	.	1A	de	1c	Quo-	1r	.
.	.	2.B-/	gre-	1d	-ru(m)	1f	Quo-
.	.	4A/	.	.	.	.	.
=23-	=23-	=23-	=23-	=23-	=23-	=23-	=23-
0r	.	1G	.	1e	de	1g	-ru(m)
.	.	1F	-ge	2.f\	gre-	1a	de
.	.	.	.	4e\	-ge	.	.
=24-	=24-	=24-	=24-	=24-	=24-	=24-	=24-
!	!	!LO:SIC:v:t=custos f	!	!	!	!	!
1r	.	2r	.	1d	.	1.b-	gre-
!	!	!LO:LB:g=original	!	!	!	!	!
.	.	2f\	quo-	.	.	.	.
2r	.	2e\	-ru(m)	1c	.	.	.
2F\	Quo-	2c\	de	.	.	2a/	.
=25-	=25-	=25-	=25-	=25-	=25-	=25-	=25-
1.B-	-ru(m)	1.d,<	gre-	1r	.	1g	.
.	.	.	.	2r	.	1f,<	-ge
!	!	!	!	!LO:TX:t=P:problem:przekreślona synkopowana wartość	!	!	!
2A\	de	2c\	.	1f\	An-	.	.
=26-	=26-	=26-	=26-	=26-	=26-	=26-	=26-
!LO:SIC:v:t=custos F	!	!	!	!	!	!	!
1G	g(re)-	1B-	.	.	.	2r	.
.	.	.	.	2e\	-ſel-	1b-	An-
!LO:LB:g=original	!	!	!	!	!	!	!
1F	-ge	1c	.	1f	-m(us)	.	.
.	.	.	.	.	.	2a\	-ſel-
=27-	=27-	=27-	=27-	=27-	=27-	=27-	=27-
*	*ij	*	*	*	*	*	*
2B-\	de	2G/	ge	1g	p(ri)-	1b-	-m(us)
2G\	g(re)-	1B-	An-	.	.	.	.
!LO:TX:t=P:problem:kreska pseudotaktowa	!	!	!	!LO:TX:t=P:problem:kreska pseudotaktowa	!	!	!
1F	-ge	.	.	1c	-m(us)	1cc	p(ri)-
*	*Xij	*	*	*	*	*	*
!	!	!LO:TX:t=P:problem:kreska pseudotaktowa	!	!	!	!	!
.	.	2A/	-ſel-	.	.	.	.
=28-	=28-	=28-	=28-	=28-	=28-	=28-	=28-
!	!	!LO:TX:t=P:problem:kreska pseudotaktowa	!	!	!	!	!
2r	.	1B-	-mus	2r	.	1f	-m(us)
!LO:TX:t=P:problem:przekreślona synkopowana wartość	!	!	!	!LO:TX:t=P:problem:kreska pseudotaktowa	!	!	!
1BB-	An-	.	.	2F/	con-	.	.
!	!	!	!	!LO:SIC:v:t=custos A	!	!	!
.	.	1c	pri-	2G/	.	2r	.
!	!	!	!	!LO:LB:g=original	!	!	!
2AA/	-ſel-	.	.	2A/	-cep-	2c/	con-
=29-	=29-	=29-	=29-	=29-	=29-	=29-	=29-
1BB-	-m(us)	2F/	-mus	2D/	-tu(m)	2d/	-cep-
.	.	2B-/	con-	2d\	tu-	1f	-tum
1C	p(ri)-	1G	-ce-	1c	-u(m)	.	.
.	.	.	.	.	.	2e/	tu-
=30-	=30-	=30-	=30-	=30-	=30-	=30-	=30-
!	!	!	!	!	!	!LO:SIC:v:t=custos a	!
2FF/	-m(us)	1A	-ptu(m)	2r	.	2f/	-u(m)
!	!	!	!	!	!	!LO:LB:g=original	!
2FF/	con-	.	.	2c/	con-	2a/	po-
2GG/	-ce-	2B-/	tu-	2B-/	-cep-	2g/	.
2AA/	-ptu(m)	2A/	-u(m)	2c/	-tu(m)	1f/	.
=31-	=31-	=31-	=31-	=31-	=31-	=31-	=31-
2BB-/	tu-	1G	po-	2d/	tu-	.	.
2C/	-u(m)	.	.	1c	-u(m)	2e/	.
1D	po-	1F	-nit	.	.	1f,<	.
!	!	!	!	!LO:TX:t=P:problem:kreska pseudotaktowa	!	!	!
.	.	.	.	2B-/	po-	.	.
=32-	=32-	=32-	=32-	=32-	=32-	=32-	=32-
!	!	!LO:TX:t=P:problem:przekreślona synkopowana wartość	!	!	!	!	!
1C	-nit	0c	mu(n)-	2c/	-nit	1e	-nit
!	!	!	!	!LO:TX:t=P:problem:kreska pseudotaktowa	!	!	!
.	.	.	.	2e\	mun-	.	.
1F	mun-	.	.	2.f\	-diſ-	1a	mun-
.	.	.	.	4e\	.	.	.
=33-	=33-	=33-	=33-	=33-	=33-	=33-	=33-
1.B-	-diſ-	1.d	-diſ-	4d/	.	0f	-diſ-
.	.	.	.	4c/	.	.	.
.	.	.	.	4B-/	.	.	.
.	.	.	.	4c/	.	.	.
.	.	.	.	4d\	.	.	.
.	.	.	.	4e\	.	.	.
2A\	.	2c\	-ſi-	1f\	.	.	.
=34-	=34-	=34-	=34-	=34-	=34-	=34-	=34-
1G	-ſi-	1B-	.	.	.	1g	-ſi-
.	.	.	.	2e\	-ſi-	.	.
!	!	!LO:SIC:v:t=custos F	!	!	!	!	!
1Fl	-mu(m)	1cl	-mu(m)	1fl	-mu(m)	1al	-mu(m)
!	!	!LO:LB:g=original	!	!	!	!	!
=35||	=35||	=35||	=35||	=35||	=35||	=35||	=35||
1r	.	00r	.	1c	Ber-	0r	.
!	!	!	!	!LO:SIC:v:t=custos d	!	!	!
1F	Ber-	.	.	2A/	-nar-	.	.
!	!	!	!	!LO:LB:g=original	!	!	!
.	.	.	.	1d\	-dus	.	.
=36-	=36-	=36-	=36-	=36-	=36-	=36-	=36-
2.D/	-nar-	.	.	.	.	1f	Ber-
.	.	.	.	4c/	.	.	.
4E/	.	.	.	4B-/	.	.	.
2F\	.	.	.	2A/	.	1d	-nar-
!LO:SIC:v:t=custos D	!	!	!	!	!	!	!
2G\	.	.	.	2B-,</	.	.	.
!LO:LB:g=original	!	!	!	!	!	!	!
=37-	=37-	=37-	=37-	=37-	=37-	=37-	=37-
2D/	-dus	1F	Ber-	2A/	Ber-	1f	-d(us)
*	*ij	*	*	*	*	*	*
2D/	Ber-	.	.	1d	-nar-	.	.
2.F\	-nar-	1D	-nar-	.	.	2f/	ber-
.	.	.	.	4c/	.	1a\	-nar-
4E/	.	.	.	4B-/	.	.	.
=38-	=38-	=38-	=38-	=38-	=38-	=38-	=38-
1D	.	1F	-dus	2A/	.	.	.
.	.	.	.	2B-/	-dus	4g/	.
.	.	.	.	.	.	4f/	.
2C/	-dus	2G/	de-	2c/	.	2e/	.
*	*Xij	*	*	*	*	*	*
1BB-/	de-	2.B-\	-ni-	1d\	de-	2f/	-dus
=39-	=39-	=39-	=39-	=39-	=39-	=39-	=39-
.	.	.	.	.	.	2d/	de-
.	.	4A/	.	.	.	.	.
2C/	.	1A	.	2c/	.	2e/	.
2D/	.	.	.	1B-	-ni-	2f/	.
2E/	-ni-	2G/	.	.	.	2g/	-ni-
=40-	=40-	=40-	=40-	=40-	=40-	=40-	=40-
!	!	!	!	!	!	!LO:SIC:v:t=custos cc	!
1F	-q(ue)	2A/	-q(ue)	0A	-q(ue)	2c/	-q(ue)
!	!	!	!	!	!	!LO:LB:g=original	!
.	.	2A/	per-	.	.	2cc\	per-
2r	.	1c	-luſ-	.	.	2cc\	-luſ-
2F\	per-	.	.	.	.	2.cc\	-tran-
=41-	=41-	=41-	=41-	=41-	=41-	=41-	=41-
2F\	-luſ-	1c	-tran-	2r	.	.	.
.	.	.	.	.	.	4b-\	.
2.F\	-tran-	.	.	2f\	per-	4a/	.
.	.	.	.	.	.	4g/	.
.	.	1A	-do	2f\	-luſ-	2f/	.
4E/	.	.	.	.	.	.	.
4D/	.	.	.	2.f\	-tran-	2f/	-do
4C/	.	.	.	.	.	.	.
=42-	=42-	=42-	=42-	=42-	=42-	=42-	=42-
1BB-	-do	1.B-	in-	.	.	2.b-\	in-
.	.	.	.	4e\	.	.	.
.	.	.	.	4d/	.	.	.
.	.	.	.	4c/	-do	4a/	.
2r	.	.	.	4d/	in-	2g/	.
.	.	.	.	4e/	.	.	.
2F\	in-	2A/	.	1f\	.	2f/	.
=43-	=43-	=43-	=43-	=43-	=43-	=43-	=43-
1.B-	-ti-	1G	-ti-	.	.	1g	ti-
.	.	.	.	2e\	-ti-	.	.
.	.	2F/	-me	2f\	-me	2c/	-me
!	!	!	!	!LO:SIC:v:t=custos d	!	!	!
2A\	.	2F/	om-	2f\	om-	2cc\	om-
!	!	!	!	!LO:PB:g=original	!	!	!
=44-	=44-	=44-	=44-	=44-	=44-	=44-	=44-
1G	.	2G/	-ni	4d/	-ni	2b-\	-ni
.	.	.	.	4c/	.	.	.
.	.	2B-/	p(rae)-	4d/	.	2g/	p(rae)-
.	.	.	.	4e/	.	.	.
2F\	-me	1A	-fert	2f\	.	2a/	-fert
2F\	o(m-	.	.	2f\	prae-	2d/	lau-
=45-	=45-	=45-	=45-	=45-	=45-	=45-	=45-
2C/	-n)i	2G/	lau-	2e\	-fert	2e/	.
2D/	p(rae)-	2F/	.	1d	.	1f	.
2BB-/	-fert	1G	.	.	.	.	.
2C/	lau-	.	.	2c/	lau-	2e/	.
=46-	=46-	=46-	=46-	=46-	=46-	=46-	=46-
!LO:SIC:v:t=custos F	!	!LO:SIC:v:t=custos F	!	!	!	!LO:SIC:v:t=custos cc	!
0FFl	-de.	0Fl	-de	0cl	-de	0fl\	-de
!LO:LB:g=original	!	!LO:LB:g=original	!	!	!	!LO:PB:g=original	!
=47||	=47||	=47||	=47||	=47||	=47||	=47||	=47||
1r	.	1F	Au-	1f	Au-	0r	.
1F	Au-	1A	-guſ-	2f\	-guſ-	.	.
.	.	.	.	1f\	-ti-	.	.
=48-	=48-	=48-	=48-	=48-	=48-	=48-	=48-
2F\	-guſ-	2c\	-ti-	.	.	1cc	Au-
1F	-ti-	2c\	-nus	4e/	.	.	.
.	.	.	.	4d/	.	.	.
.	.	1A	re	2.c/	.	2cc\	-guſ-
4E/	.	.	.	.	.	1cc\	-ti-
4D/	.	.	.	4d/	.	.	.
=49-	=49-	=49-	=49-	=49-	=49-	=49-	=49-
1C	-nus	1c	ve-	2e\	.	.	.
.	.	.	.	1f	.	4b-/	.
.	.	.	.	.	.	4a/	.
1r	.	1c	-ra	.	.	1g	.
.	.	.	.	2e\	.	.	.
=50-	=50-	=50-	=50-	=50-	=50-	=50-	=50-
2r	.	1d	ſic	2f\	-nus	2f/	-nus
2D/	re	.	.	2f\	re	2a/	re
*	*	*lig	*	*	*	*	*
2F\	ve-	1A	in-	2f\	ve-	2a/	ue-
2F\	-ra	.	.	2f\	-ra	2cc\	-ra
=51-	=51-	=51-	=51-	=51-	=51-	=51-	=51-
2G\	ſic	1B-	.	2d\	ſic	2b-\	ſic
2G\	in-	.	.	2e\	in-	2b-\	in-
*	*	*Xlig	*	*	*	*	*
1F	-q(ui)t	2c\	-quit	2f\	-q(ui)t	2a\	-q(ui)t
!	!	!	!	!LO:SIC:v:t=custos F	!	!	!
.	.	2F/	cu(m)	2f\	cu(m)	2.cc\	cu(m)
!	!	!	!	!LO:LB:g=original	!	!	!
=52-	=52-	=52-	=52-	=52-	=52-	=52-	=52-
2r	.	1A	de	1F	de	.	.
.	.	.	.	.	.	4b-\	.
2F\	cu(m)	.	.	.	.	2a/	.
2E\	de	1c	pec-	2G/	p(ec-	2g/	de
2F\	p(ec-	.	.	2A/	-ca)-	1f/	pec-
=53-	=53-	=53-	=53-	=53-	=53-	=53-	=53-
1C	-ca)-	1c	-ca-	2G/	-tis	.	.
.	.	.	.	2.c/	di-	2e/	-ca-
1F	-tis	2A/	-t(is)	.	.	0f	-t(is)
.	.	.	.	4B-/	.	.	.
.	.	2c\	di-	4A/	.	.	.
.	.	.	.	4G/	.	.	.
=54-	=54-	=54-	=54-	=54-	=54-	=54-	=54-
1F	di-	1c	-ci	2A/	.	.	.
.	.	.	.	2A/	ci	.	.
1BB-	-ci	1d	con-	2F/	con-	2r	.
.	.	.	.	2f\	-tin-	2b-\	di-
=55-	=55-	=55-	=55-	=55-	=55-	=55-	=55-
*	*	*lig	*	*	*	*	*
1F	con-	1A	-tin-	1f	-git	2cc\	-ci
.	.	.	.	.	.	2cc\	con-
4BB-/	-tin-	1B-	.	2r	.	1dd	-tin-
4C/	.	.	.	.	.	.	.
4D/	.	.	.	2f\	no(n)	.	.
4BB-/	.	.	.	.	.	.	.
*	*	*Xlig	*	*	*	*	*
=56-	=56-	=56-	=56-	=56-	=56-	=56-	=56-
1F	-git	2c\	-git	1f	quę-	0cc	-git
.	.	2c\	n(on)	.	.	.	.
2r	.	1c	quę-	2e\	-ri	.	.
2F\	n(on)	.	.	2c\	no(n)	.	.
=57-	=57-	=57-	=57-	=57-	=57-	=57-	=57-
!LO:SIC:v:t=custos C	!	!	!	!	!	!LO:SIC:v:t=custos cc	!
1F	quę-	2A/	-ri	1f	fa-	2r	.
!	!	!LO:SIC:v:t=custos c	!	!	!	!LO:LB:g=original	!
.	.	2A/	no(n)	.	.	2cc\	no(n)
!LO:PB:g=original	!	!LO:PB:g=original	!	!	!	!	!
2C/	-ri	1c	fa-	1e	-ri	1cc	quę-
2C/	n(on)	.	.	.	.	.	.
=58-	=58-	=58-	=58-	=58-	=58-	=58-	=58-
1F	fa-	1F	-ri	2r	.	2a/	-ri
.	.	.	.	2c/	an	2a/	no(n)
1BB-	-ri	1r	.	1d	lap-	1b-	fa-
=59-	=59-	=59-	=59-	=59-	=59-	=59-	=59-
0r	.	2r	.	2e-X/	-ſu(m)	1g	-ri
.	.	2G/	an	2d/	fę-	.	.
.	.	2A/	lap-	2c/	-cit	1r	.
.	.	2B-/	-ſu(m)	4r	.	.	.
*	*	*	*	*	*ij	*	*
!	!	!	!	!LO:SIC:v:t=custos e	!	!	!
.	.	.	.	4d/	an	.	.
!	!	!	!	!LO:LB:g=original	!	!	!
=60-	=60-	=60-	=60-	=60-	=60-	=60-	=60-
1r	.	2G/	fę-	2eny\	lap-	2g/	an
.	.	2F/	-cit	2f\	-ſum	2a/	lap-
2r	.	4r	.	2d\	fę-	2b-\	-ſum
*	*	*	*ij	*	*	*	*
.	.	4d\	an	.	.	.	.
2C/	an	2e\	lap-	2c\	-cit	2g/	fę-
*	*	*	*	*	*Xij	*	*
=61-	=61-	=61-	=61-	=61-	=61-	=61-	=61-
2D/	lap-	2f\	-ſu(m)	2r	.	2f/	-cit
1F	-ſu(m)	2d\	fę-	2.A/	an	4r	.
.	.	.	.	.	.	4a/	an
.	.	1c	-cit	.	.	2cc\	lap-
*	*	*	*Xij	*	*	*	*
.	.	.	.	4B-/	.	.	.
!LO:TX:t=P:problem:kreska pseudotaktowa	!	!	!	!LO:TX:t=P:problem:przekreślona synkopowana wartość	!	!	!
2E/	.	.	.	1c\	.	2cc\	-ſu(m)
=62-	=62-	=62-	=62-	=62-	=62-	=62-	=62-
1D	fę-	2r	.	.	.	1dd	fę-
.	.	2F/	an	2B-/	le-	.	.
1C	-cit	1G	le-	2.c/	-gem	2g/	-cit
.	.	.	.	.	.	2g/	an
.	.	.	.	4B-/	.	.	.
=63-	=63-	=63-	=63-	=63-	=63-	=63-	=63-
2FF/	an	1F	-ge(m)	2A/	.	2a/	le-
2BB-/	le-	.	.	2B-/	vi-	2f/	-ge(m)
2AA/	-gem	1F	vi-	1A	-o-	2r	.
2.D/	vi-	.	.	.	.	2.f/	vi-
=64-	=64-	=64-	=64-	=64-	=64-	=64-	=64-
.	.	1D	-o-	2F/	-la-	.	.
4C/	.	.	.	.	.	4e/	.
4BB-/	.	.	.	1B-	.	4d/	.
4AA/	.	.	.	.	.	4c/	.
2BB-/	-o-	2.D/	-la-	.	.	2d/	-o-
2BB-/	-la-	.	.	4A/	-uit	2d/	-la-
.	.	4E/	.	4G/	.	.	.
=65-	=65-	=65-	=65-	=65-	=65-	=65-	=65-
!	!	!	!	!	!	!LO:SIC:v:t=custos f	!
0FFl	-uit.	0Fl	-vit.	0Al	.	0cc 0cl\	-uit
!	!	!	!	!	!	!LO:LB:g=original	!
=66||	=66||	=66||	=66||	=66||	=66||	=66||	=66||
1r	.	1r	.	1f	Hęc	1f	Hęc
1F	Hęc	1F	Hęc	2f\	ſunt	1a	ſunt
.	.	.	.	1f\	e-	.	.
=67-	=67-	=67-	=67-	=67-	=67-	=67-	=67-
2F/	ſunt	1A	ſunt	.	.	2.cc\	e-
1F	e-	.	.	4e\	.	.	.
.	.	.	.	4d\	.	4b-\	.
!	!	!LO:SIC:v:t=custos c	!	!LO:SIC:v:t=custos f	!	!	!
.	.	1c	e-	2c/	.	2a/	.
!	!	!	!	!LO:LB:g=original	!	!	!
4E/	.	.	.	1f\	-lo-	4g/	.
4D/	.	.	.	.	.	4f/	.
!	!	!LO:LB:g=original	!	!	!	!	!
=68-	=68-	=68-	=68-	=68-	=68-	=68-	=68-
2C/	.	1c	-lo-	.	.	2g/	.
!LO:SIC:v:t=custos F	!	!	!	!	!	!	!
2C/	-lo-	.	.	2e\	-qui-	2g/	-lo-
!LO:LB:g=original	!	!	!	!	!	!	!
1F	-qui-	1A	-qui-	1f	-a	1a	-qui-
=69-	=69-	=69-	=69-	=69-	=69-	=69-	=69-
*M3/2	*	*M3/2	*	*M3/2	*	*M3/2	*
*met(3)	*	*met(3)	*	*met(3)	*	*met(3)	*
*rscale:2	*	*rscale:2	*	*rscale:2	*	*rscale:2	*
1C	-a	1c	-a	1e	quę	2g\	-a
.	.	.	.	.	.	2g\	quę
2r	.	2r	.	2f\	ti-	2a\	ti-
=70-	=70-	=70-	=70-	=70-	=70-	=70-	=70-
1G	q(uae)	1.r	.	2.g\	-bi	1b-	-bi
.	.	.	.	4f\	pla-	.	.
2A\	ti-	.	.	2e\	.	2a\	pla-
=71-	=71-	=71-	=71-	=71-	=71-	=71-	=71-
2.B-\	-bi	1d	quę	2.d\	-cent	1f	-cent
4A\	.	.	.	4c/	.	.	.
2G\	pla-	2e\	ti-	2B-/	.	2r	.
=72-	=72-	=72-	=72-	=72-	=72-	=72-	=72-
2F\	-cent	2.f\	-bi	1c	quę	1a	quę
2F\	quem	.	.	.	.	.	.
.	.	4e\	.	.	.	.	.
2G\	ti-	2d\	pla-	2g\	ti-	2b-\	ti-
=73-	=73-	=73-	=73-	=73-	=73-	=73-	=73-
2.A\	-bi	1.c	-cent	1e	-bi	2.cc\	-bi
4G\	.	.	.	.	.	4b-\	.
2F\	pla-	.	.	2f\	pla-	2a\	pla-
*rscale:1	*	*rscale:1	*	*rscale:1	*	*rscale:1	*
=74-	=74-	=74-	=74-	=74-	=74-	=74-	=74-
*M2/1	*	*M2/1	*	*M2/1	*	*M2/1	*
*met(C|)	*	*met(C|)	*	*met(C|)	*	*met(C|)	*
2C/	-cent	1c	ò	2e\	-cent	2g/	-cent
!	!	!	!	!	!	!LO:SIC:v:t=custos b	!
2C/	ò	.	.	2.c/	ò	2g/	ò
!	!	!	!	!	!	!LO:LB:g=original	!
2.G\	de-	1d	de-	.	.	2.b-/	de-
.	.	.	.	8B-/	.	.	.
.	.	.	.	8A/	.	.	.
.	.	.	.	2B-/	.	.	.
4F\	.	.	.	.	.	4a/	.
=75-	=75-	=75-	=75-	=75-	=75-	=75-	=75-
2E/	.	1c	-i	2c/	de-	2g/	.
2F/	-i	.	.	2A/	-i	1f	-i
!	!	!	!	!LO:SIC:v:t=custos c	!	!	!
1G	p(at-	1B-	p(at-	1B-	pa-	.	.
.	.	.	.	.	.	2e/	p(at-
!	!	!	!	!LO:LB:g=original	!	!	!
=76-	=76-	=76-	=76-	=76-	=76-	=76-	=76-
2.F\	-ris)	1A	-ris)	2c/	-tr(is)	2f/	-ris)
.	.	.	.	2F/	.	2.cc\	fi-
4E\	.	.	.	.	.	.	.
2C/	.	1c	fi-	2G/	fi-	.	.
.	.	.	.	.	.	4b-\	.
2.F\	fi-	.	.	2A/	.	4a/	.
.	.	.	.	.	.	4g/	.
=77-	=77-	=77-	=77-	=77-	=77-	=77-	=77-
.	.	1.A	-li-	0F	-li-	4a/	.
4E/	.	.	.	.	.	4g/	.
4D/	.	.	.	.	.	4f/	.
4C/	.	.	.	.	.	4e/	.
2D/	-li-	.	.	.	.	2f/	.
2D/	-a	2B-/	-a	.	.	2f/	-li-
=78-	=78-	=78-	=78-	=78-	=78-	=78-	=78-
!LO:SIC:v:t=custos C	!	!	!	!	!	!	!
0Cl	.	0cl	.	0Gl	-a	0el	-a
!LO:LB:g=original	!	!	!	!	!	!	!
=79||	=79||	=79||	=79||	=79||	=79||	=79||	=79||
00r	.	0r	.	1f	A	1f	A
.	.	.	.	2f\	ſco-	2a\	ſco-
.	.	.	.	2g\	-to	2b-\	-to
=80-	=80-	=80-	=80-	=80-	=80-	=80-	=80-
.	.	2r	.	1a	Gui-	1cc	Gui-
.	.	2F/	A	.	.	.	.
.	.	2G/	ſco-	2g\	.	2b-\	.
!	!	!LO:SIC:v:t=custos B	!	!	!	!	!
.	.	2A/	-to	1f\	.	2a\	.
!	!	!LO:LB:g=original	!	!	!	!	!
=81-	=81-	=81-	=81-	=81-	=81-	=81-	=81-
2r	.	2B-\	Gui-	.	.	1g	-do-
2C/	A	2c\	-do-	2e\	.	.	.
2D/	ſco-	2F/	-ne	2d\	.	2f/	.
2E/	-to	2G/	et	1c\	.	2e/	.
=82-	=82-	=82-	=82-	=82-	=82-	=82-	=82-
2F\	Gui-	2A/	Ri-	.	.	2d/	-ne
!	!	!	!	!	!	!LO:SIC:v:t=custos e	!
2G\	-do-	2B-/	.	2B-/	-do-	2d/	et
!	!	!	!	!	!	!LO:LB:g=original	!
*	*	*	*	*	*	*lig	*
1C	-ne	1G	-char-	1c	.	1e	Ri-
=83-	=83-	=83-	=83-	=83-	=83-	=83-	=83-
2r	.	1F	-do	1A	.	1f	.
2D/	et	.	.	.	.	.	.
*lig	*	*	*ij	*	*	*Xlig	*
1E	Ri-	2r	.	1G	-ne	1e	-char-
.	.	2G/	et	.	.	.	.
=84-	=84-	=84-	=84-	=84-	=84-	=84-	=84-
*	*	*lig	*	*	*	*	*
1F	.	1A	Ri-	1r	.	1c	-do
*Xlig	*	*	*	*	*	*	*
1D	-char-	1B-	.	2r	.	1r	.
.	.	.	.	2d\	et	.	.
*	*	*Xlig	*	*	*	*	*
=85-	=85-	=85-	=85-	=85-	=85-	=85-	=85-
*	*	*	*	*lig	*	*	*
1C	-do	1G	-char-	1e	Ri-	2r	.
.	.	.	.	.	.	2g/	et
*	*	*	*	*	*	*lig	*
2r	.	1F	-do	1f	.	1a	ri-
2.c\	aſ-	.	.	.	.	.	.
*	*	*	*Xij	*Xlig	*	*	*
=86-	=86-	=86-	=86-	=86-	=86-	=86-	=86-
.	.	2r	.	1d	-char-	1b-	.
8B-\	.	.	.	.	.	.	.
8A\	.	.	.	.	.	.	.
2B-\	-ſe-	1f	aſ-	.	.	.	.
*	*	*	*	*	*	*Xlig	*
2c\	-ri-	.	.	2c/	-do	1a	-char-
!	!	!	!	!LO:SIC:v:t=custos A	!	!	!
2C/	-tur	2e\	-ſe-	2c/	aſ-	.	.
!	!	!	!	!LO:PB:g=original	!	!	!
=87-	=87-	=87-	=87-	=87-	=87-	=87-	=87-
1D	.	1d	-ri-	1A	-ſe-	2f/	-do
.	.	.	.	.	.	2f/	aſ-
1AA	id	1c	-tur	2A/	-ri-	2e/	-ſe-
.	.	.	.	1A/	-tur	2e/	-ri-
=88-	=88-	=88-	=88-	=88-	=88-	=88-	=88-
2.AA/	ra-	1c	id	.	.	1e	-tur
.	.	.	.	4G/	.	.	.
4BB-/	.	.	.	4F/	.	.	.
2C/	.	1.A	ra-	2E/	.	2c/	id
1D\	.	.	.	2F/	id	1f/	ra-
=89-	=89-	=89-	=89-	=89-	=89-	=89-	=89-
.	.	.	.	2D/	ra-	.	.
2C/	-ti-	2A/	-ti-	2E/	-ti-	2e/	-ti-
1D	-o-	2.A/	-o-	2.F/	-o-	1d	-o-
.	.	4B-/	.	4G/	.	.	.
=90-	=90-	=90-	=90-	=90-	=90-	=90-	=90-
!LO:SIC:v:t=custos G	!	!	!	!	!	!	!
0AAl	-ne	0cl	-ne	0Al	-ne	0el	-ne
!LO:LB:g=original	!	!	!	!	!	!	!
=91||	=91||	=91||	=91||	=91||	=91||	=91||	=91||
1G	Per	2.G/	Per	1g	Per	00r	.
.	.	4A/	.	.	.	.	.
2G\	dę-	4B-/	.	0g	dę-	.	.
!	!	!LO:SIC:v:t=custos d	!	!	!	!	!
.	.	4c/	.	.	.	.	.
!	!	!LO:LB:g=original	!	!	!	!	!
1G\	-mo-	2.d\	dę-	.	.	.	.
=92-	=92-	=92-	=92-	=92-	=92-	=92-	=92-
.	.	.	.	.	.	.	.
.	.	4B-/	.	.	.	.	.
4F\	.	1c	.	.	.	.	.
4E\	.	.	.	.	.	.	.
1D	.	.	.	1f	-mo-	.	.
.	.	2B-/	-mo-	.	.	.	.
=93-	=93-	=93-	=93-	=93-	=93-	=93-	=93-
2C/	-nes	1c	-nes	1e	-nes	1cc	Per
2.c\	i-	.	.	.	.	.	.
.	.	1F	.	1f	ia(m)	1cc	dę-
4B-\	-a(m)	.	.	.	.	.	.
1A\	.	.	.	.	.	.	.
=94-	=94-	=94-	=94-	=94-	=94-	=94-	=94-
.	.	2r	.	1g	ſub-	1b-	-mo-
2G\	.	2B-/	i-	.	.	.	.
*	*	*	*	*lig	*	*	*
2A\	.	1c	-a(m)	1e	-mer-	1a	-nes
2c\	ſub-	.	.	.	.	.	.
=95-	=95-	=95-	=95-	=95-	=95-	=95-	=95-
1B-	.	1d	ſub-	1d	.	1b-	ia(m)
*	*	*	*	*Xlig	*	*	*
!	!	!	!	!	!	!LO:SIC:v:t=custos a	!
2A\	-mer-	2e\	-mer-	1c	-ſu(m)	2cc\	ſub-
!	!	!	!	!	!	!LO:PB:g=original	!
2F\	.	1f\	-ſu(m)	.	.	1a\	-mer-
=96-	=96-	=96-	=96-	=96-	=96-	=96-	=96-
1c	-ſu(m)	.	.	2r	.	.	.
*	*	*	*	*	*ij	*	*
.	.	4e\	.	1f	ſub-	4g/	.
.	.	4d\	.	.	.	4f/	.
2r	.	1c	.	.	.	1g	.
2C/	re-	.	.	2e\	-mer-	.	.
=97-	=97-	=97-	=97-	=97-	=97-	=97-	=97-
1D	-du-	2r	.	1d	.	1f	-ſu(m)
.	.	2F/	re-	.	.	.	.
1E	-xi-	1G	-du-	1c	-ſu(m)	1r	.
*	*	*	*	*	*Xij	*	*
=98-	=98-	=98-	=98-	=98-	=98-	=98-	=98-
!	!	!	!	!LO:SIC:v:t=custos c	!	!	!
2AA/	-ſti	1A	-xi-	2r	.	1r	.
!	!	!	!	!LO:LB:g=original	!	!	!
2.A\	tu-	.	.	2c/	re-	.	.
.	.	2D/	-ſti	1d	-du-	2r	.
4G\	.	.	.	.	.	.	.
*	*	*	*ij	*	*	*	*
1F\	.	2d\	re-	.	.	2f/	re-
=99-	=99-	=99-	=99-	=99-	=99-	=99-	=99-
.	.	1c	-du-	1e	-xi-	1g	-du-
2E/	.	.	.	.	.	.	.
1F	-u(m)	1c	-xi-	2A/	-ſti	1a	-xi-
.	.	.	.	2.a\	tu-	.	.
=100-	=100-	=100-	=100-	=100-	=100-	=100-	=100-
2r	.	1d	-ſti	.	.	2d/	-ſti
*	*	*	*Xij	*	*	*	*
.	.	.	.	4g\	.	.	.
!LO:SIC:v:t=custos G	!	!	!	!	!	!	!
2D/	re	.	.	1f	.	2.dd\	tu-
!LO:LB:g=original	!	!	!	!	!	!	!
1G	-du-	1B-	tu-	.	.	.	.
.	.	.	.	.	.	4cc\	.
.	.	.	.	2e\	.	1b-\	.
=101-	=101-	=101-	=101-	=101-	=101-	=101-	=101-
1F	-xi-	1c	-u(m)	2.f\	-u(m)	.	.
.	.	.	.	.	.	2a/	.
.	.	.	.	4e\	.	.	.
2B-\	-ſti	1G	Clÿ-	2d\	.	1b-	-u(m)
2G\	tu-	.	.	2e\	Cli-	.	.
=102-	=102-	=102-	=102-	=102-	=102-	=102-	=102-
1F	-u(m)	1A	-mo-	2.f\	-mo-	1.a	Cli-
.	.	.	.	8e\	.	.	.
.	.	.	.	8d\	.	.	.
2r	.	1c	-ni-	1e	.	.	.
2A\	Cly-	.	.	.	.	2.cc\	-mo-
=103-	=103-	=103-	=103-	=103-	=103-	=103-	=103-
!	!	!LO:SIC:v:t=custos c	!	!	!	!	!
4A\	-mo-	[0cl	-u(m)	2e\	ni-	.	.
4G\	.	.	.	.	.	4b-/	.
4F\	.	.	.	1f	-u(m)	4a/	.
4E\	.	.	.	.	.	4g/	.
2F\	.	.	.	.	.	2a/	.
2F\	-ni-	.	.	4e\	.	2a/	.
.	.	.	.	4d\	.	.	.
=104-	=104-	=104-	=104-	=104-	=104-	=104-	=104-
0Cl	-u(m)	0c]	.	0el	.	0gl	-niu(m)
!	!	!LO:LB:g=original	!	!	!	!	!
=105||	=105||	=105||	=105||	=105||	=105||	=105||	=105||
0r	.	1c	Hel-	00r	.	00r	.
.	.	1A	-ſi-	.	.	.	.
=106-	=106-	=106-	=106-	=106-	=106-	=106-	=106-
1F	Hel-	2c\	-nu(m)-	.	.	.	.
.	.	2c\	-q(ue)	.	.	.	.
1D	-ſi-	2.d\	ab-	.	.	.	.
.	.	4c\	.	.	.	.	.
=107-	=107-	=107-	=107-	=107-	=107-	=107-	=107-
2F\	-nu(m)-	4A/	.	1f	Hel-	0r	.
.	.	4B-/	.	.	.	.	.
2F\	-q(ue)	1c	.	.	.	.	.
2.G\	ab-	.	.	1d	-ſi-	.	.
.	.	2B-/	-ba-	.	.	.	.
4F\	.	.	.	.	.	.	.
=108-	=108-	=108-	=108-	=108-	=108-	=108-	=108-
4D/	.	2A/	-te(m)	1f	-nu(m)-	2r	.
4E/	.	.	.	.	.	.	.
1F	.	4F/	ab-	.	.	2cc\	Hel-
.	.	4G/	.	.	.	.	.
!	!	!	!	!LO:SIC:v:t=custos g	!	!	!
.	.	4A/	.	1f	-q(ue)	1a	-ſi-
.	.	4B-/	.	.	.	.	.
4E/	.	1c\	.	.	.	.	.
4D/	.	.	.	.	.	.	.
!	!	!	!	!LO:LB:g=original	!	!	!
=109-	=109-	=109-	=109-	=109-	=109-	=109-	=109-
1C	.	.	.	1g	ab-	1cc	-nu(m)-
.	.	4B-/	.	.	.	.	.
.	.	4A/	.	.	.	.	.
!	!	!	!	!	!	!LO:SIC:v:t=custos dd	!
1C	-ba-	2G/	.	1e	-ba-	1cc	-q(ue)
.	.	2A/	-ba-	.	.	.	.
!	!	!	!	!	!	!LO:LB:g=original	!
=110-	=110-	=110-	=110-	=110-	=110-	=110-	=110-
!LO:SIC:v:t=custos B	!	!	!	!	!	!	!
2BB-/	-tem	2D/	-tem	1f	-tem	1dd	ab-
!LO:PB:g=original	!	!	!	!	!	!	!
2.B-\	in	2.d\	in	.	.	.	.
.	.	.	.	2r	.	1b-	-ba-
4A\	.	4c\	.	.	.	.	.
2G\	.	2B-/	.	2.d/	in	.	.
=111-	=111-	=111-	=111-	=111-	=111-	=111-	=111-
2F\	.	2A/	.	.	.	2cc\	-tem
.	.	.	.	4c/	.	.	.
2E\	.	2G/	.	1c	.	2cc\	in
1D	ma-	1F	ma-	.	.	1ff	ma-
.	.	.	.	2B-/	ma-	.	.
=112-	=112-	=112-	=112-	=112-	=112-	=112-	=112-
!	!	!LO:SIC:v:t=custos c	!	!	!	!	!
1C	-ri	2G/	-ri	4c/	-ri	2ee\	-ri
.	.	.	.	4d/	.	.	.
!	!	!LO:PB:g=original	!	!	!	!	!
.	.	2.c\	an-	4e\	.	2.cc\	an-
.	.	.	.	4f\	.	.	.
2r	.	.	.	2.g\	an-	.	.
.	.	4d\	.	.	.	4b-\	.
2c\	an-	2e\	.	.	.	4g\	.
.	.	.	.	4f\	.	4a\	.
=113-	=113-	=113-	=113-	=113-	=113-	=113-	=113-
1B-	.	2f\	.	4d\	.	4b-\	.
.	.	.	.	4e\	.	4cc\	.
.	.	2d\	.	2f\	.	2.dd\	.
2c\	.	2e\	.	2e\	.	.	.
.	.	.	.	.	.	4cc\	.
2F/	.	2f\	.	2a\	.	1cc\	.
=114-	=114-	=114-	=114-	=114-	=114-	=114-	=114-
1G	-xi-	1d	xi-	1g	-xi-	.	.
.	.	.	.	.	.	2b-\	-xi-
2C/	-u(m)	1c	-u(m)	2e\	-u(m)	2cc\	-u(m)
2F/	ad	.	.	2f\	ad	2a/	ad
=115-	=115-	=115-	=115-	=115-	=115-	=115-	=115-
1D	por-	1r	.	1f	por-	2.a/	por-
.	.	.	.	.	.	8g/	.
.	.	.	.	.	.	8f/	.
1E	-tu(m)	2r	.	1e	-tu(m)	1g	.
.	.	2c/	ad	.	.	.	.
=116-	=116-	=116-	=116-	=116-	=116-	=116-	=116-
1F	ſa-	1A	por-	2r	.	1f	-tu(m)
.	.	.	.	2f\	ad	.	.
1G	-lu-	1B-	-tu(m)	1d	por-	1r	.
=117-	=117-	=117-	=117-	=117-	=117-	=117-	=117-
1C	-t(is)	1c	ſa-	1e	-tu(m)	2r	.
.	.	.	.	.	.	2cc\	ad
!	!	!	!	!LO:SIC:v:t=custos g	!	!	!
2r	.	1d	-lu-	1f	ſa-	1a	por-
2D/	ad	.	.	.	.	.	.
!	!	!	!	!LO:LB:g=original	!	!	!
=118-	=118-	=118-	=118-	=118-	=118-	=118-	=118-
1G	por-	2G/	-t(is)	1g	-lu-	1b-	-tu(m)
.	.	2B-/	por-	.	.	.	.
2F\	-tu(m)	1A	-tu(m)	2c/	-t(is)	1cc	ſa-
*	*	*	*	*	*ij	*	*
2F\	ſa-	.	.	2f\	ad	.	.
=119-	=119-	=119-	=119-	=119-	=119-	=119-	=119-
!	!	!	!	!	!	!LO:SIC:v:t=custos g	!
1B-	-lu-	2.G/	ſa-	1d	por-	1dd	-lu-
.	.	4A/	.	.	.	.	.
!	!	!	!	!	!	!LO:LB:g=original	!
2G\	-t(is)	2B-/	.	2e\	-tu(m)	2g/	-t(is)
*	*	*	*	*	*	*	*ij
2F\	tranſ-	2c\	-lu-	2c/	ſa-	2a/	ſa-
=120-	=120-	=120-	=120-	=120-	=120-	=120-	=120-
!LO:SIC:v:t=custos A	!	!	!	!	!	!	!
1G	-du-	2G,</	-t(is)	1g	-lu-	1b-	-lu-
.	.	2B-/	tranſ-	.	.	.	.
!LO:LB:g=original	!	!	!	!	!	!	!
1A	-xi-	1c	-du-	1e	-t(is)	0a	-t(is)
*	*	*	*	*	*Xij	*	*Xij
=121-	=121-	=121-	=121-	=121-	=121-	=121-	=121-
!	!	!LO:SIC:v:t=custos G	!	!	!	!	!
1D	-ſti	1d	-xi-	2r	.	.	.
.	.	.	.	2f\	tranſ-	.	.
!	!	!LO:LB:g=original	!	!	!	!	!
2r	.	2G/	-ſti	1g	-du-	2r	.
*	*	*	*ij	*	*	*	*
2G\	tranſ-	2B-/	tranſ-	.	.	2b-\	tranſ-
=122-	=122-	=122-	=122-	=122-	=122-	=122-	=122-
2.F\	.	2A/	-du-	1a	-xiſ-	1cc	-du-
.	.	1c	-xi-	.	.	.	.
4E/	-du-	.	.	.	.	.	.
2D/	.	.	.	2d/	-ti	1dd	-xiſ-
2D/	-xi-	2B-/	-ſti	2d/	vul-	.	.
*	*	*	*Xij	*	*	*	*
=123-	=123-	=123-	=123-	=123-	=123-	=123-	=123-
1C	-ſti	2c/	.	1e	-tu	2g/	-ti
.	.	2G/	vul-	.	.	2.cc\	vul-
2C/	vul-	1c	-tu	2e\	lae-	.	.
.	.	.	.	.	.	4b-\	.
2F\	-tu	.	.	4c/	-tiſ-	2a/	-tu
.	.	.	.	4d/	.	.	.
=124-	=124-	=124-	=124-	=124-	=124-	=124-	=124-
2E\	lae-	2c\	lę-	4e\	.	2g/	lę-
.	.	.	.	4f\	.	.	.
2C/	-tiſ-	2c\	-tiſ-	1g	.	1cc	-tiſ-
1G	-ſi-	1d	-ſi-	.	.	.	.
.	.	.	.	2g\	-ſi-	2b-\	-ſi-
=125-	=125-	=125-	=125-	=125-	=125-	=125-	=125-
0Cl	-mo	0cl	-mo	0el	-mo	0ccl	-mo
=126||	=126||	=126||	=126||	=126||	=126||	=126||	=126||
0r	.	00r	.	1c	Ec-	1cc	Ec-
.	.	.	.	2d\	-cle-	2a/	-cle-
.	.	.	.	2e\	-ſi-	2g/	-ſi-
=127-	=127-	=127-	=127-	=127-	=127-	=127-	=127-
!	!	!	!	!LO:SIC:v:t=custos a	!	!	!
1F	Ec-	.	.	2f\	-a	2cc\	-a
!	!	!	!	!LO:LB:g=original	!	!	!
.	.	.	.	2.a\	Ro-	2cc\	Ro-
1D	-cle-	.	.	.	.	1dd	-ma-
.	.	.	.	4g\	.	.	.
.	.	.	.	1f\	.	.	.
=128-	=128-	=128-	=128-	=128-	=128-	=128-	=128-
1C	-ſi-	1c	Ec-	.	.	2g/	-na
*	*	*	*	*	*	*	*ij
.	.	.	.	2e\	-ma-	4cc\	Ec-
.	.	.	.	.	.	4b-\	-cle-
2F\	-a	1A	-cle-	4f\	-na	4a\	-ſi-
.	.	.	.	4e\	.	4g\	-a
2F\	Ro-	.	.	4d/	.	1f/	Ro-
.	.	.	.	4c/	.	.	.
=129-	=129-	=129-	=129-	=129-	=129-	=129-	=129-
1G	-ma-	1G	-ſi-	4B-/	.	.	.
.	.	.	.	4A/	.	.	.
!	!	!	!	!	!	!LO:SIC:v:t=custos f	!
.	.	.	.	1B-	.	2e/	-ma-
!	!	!	!	!	!	!LO:LB:g=original	!
1F	-na	2c\	-a	.	.	0f	-na
*	*	*	*	*	*	*	*Xij
.	.	2c\	Ro-	2A/	.	.	.
=130-	=130-	=130-	=130-	=130-	=130-	=130-	=130-
1r	.	1d	-ma-	1B-	.	.	.
1A	ap-	2c\	-na	2r	.	1cc	ap-
.	.	1e\	ap-	2A/	ap-	.	.
=131-	=131-	=131-	=131-	=131-	=131-	=131-	=131-
1G	-pro-	.	.	4B-/	-pro-	1b-	-pro-
.	.	.	.	4c/	.	.	.
.	.	1d	-pro-	4d/	.	.	.
.	.	.	.	4e/	.	.	.
1F	-bat	.	.	2f\	.	1a	-bat
.	.	1c\	-bat	2f\	-bat	.	.
=132-	=132-	=132-	=132-	=132-	=132-	=132-	=132-
!LO:SIC:v:t=custos G	!	!	!	!	!	!	!
1A	co(n)-	.	.	2e\	co(n)-	1cc	co(n)-
.	.	1e	co(n)-	2c/	-fir-	.	.
!LO:LB:g=original	!	!	!	!	!	!	!
1G	-fir-	.	.	2g\	-mat	1b-	-fir-
*	*	*	*	*	*ij	*	*
!	!	!LO:SIC:v:t=custos c	!	!	!	!	!
.	.	1d\	-fir-	2G/	co(n)-	.	.
=133-	=133-	=133-	=133-	=133-	=133-	=133-	=133-
1F	-mat	.	.	1A	-fir-	2a/	-mat
*	*	*	*	*	*	*	*ij
!	!	!LO:LB:g=original	!	!	!	!	!
.	.	1c	.	.	.	1f	co(n)-
2r	.	.	.	1G	-mat	.	.
2G\	hoc	2B-/	.	.	.	2e/	-fir-
*	*	*	*	*	*Xij	*	*
=134-	=134-	=134-	=134-	=134-	=134-	=134-	=134-
2A\	fe-	1c	-mat	2F/	.	1f	-mat
*	*	*	*	*	*	*	*Xij
!	!	!	!	!LO:SIC:v:t=custos G	!	!	!
2F\	.	.	.	2A/	hoc	.	.
!	!	!	!	!LO:PB:g=original	!	!	!
2E\	-ſtu(m)	1c	hoc	2G/	feſ-	2r	.
2A\	.	.	.	2F/	-tu(m)	2cc\	hoc
=135-	=135-	=135-	=135-	=135-	=135-	=135-	=135-
2G\	ſit	1d	feſ-	2r	.	2b-\	feſ-
2F\	.	.	.	2f\	ho	2a\	.
2.G\	ce-	1d	-tu(m)	2d\	fe-	2.b-\	-tu(m)
.	.	.	.	2B-/	.	.	.
4F\	.	.	.	.	.	4a/	ſit
=136-	=136-	=136-	=136-	=136-	=136-	=136-	=136-
2E/	-le-	1c	ſit	2c/	.	2g/	.
2F/	-bran-	.	.	2A/	.	1f	.
1C	-du(m)	1c	ce-	1G	.	.	.
.	.	.	.	.	.	2e/	.
=137-	=137-	=137-	=137-	=137-	=137-	=137-	=137-
2.c\	ce-	2.A/	-le-	1F	-ſtu(m)	2f/	.
.	.	.	.	.	.	2ff\	ce-
4B-\	.	4B-/	.	.	.	.	.
2A\	.	2c\	.	2r	.	2ee\	-le-
2B-\	.	2d\	.	2f\	ſit	2.dd\	-bran-
=138-	=138-	=138-	=138-	=138-	=138-	=138-	=138-
2c\	.	2e\	.	2e\	ce-	.	.
.	.	.	.	.	.	4cc\	.
2F\	le-	2f\	.	2a\	-le-	1cc	.
1G	bran-	1d	bran-	1g	-bran-	.	.
.	.	.	.	.	.	2b-\	.
=139-	=139-	=139-	=139-	=139-	=139-	=139-	=139-
2C/	-du(m)	[0cl	-du(m).	2e/	-du(m)	[0ccl	-du(m).
*	*ij	*	*	*	*ij	*	*
1F	ce-	.	.	1a	ſit	.	.
2E/	-le-	.	.	4g\	ce-	.	.
.	.	.	.	4f\	.	.	.
=140-	=140-	=140-	=140-	=140-	=140-	=140-	=140-
2.A\	-bran-	0c_	.	2e\	.	0cc_	.
.	.	.	.	2e\	-le-	.	.
4G\	.	.	.	.	.	.	.
2F/	.	.	.	1f	-bran-	.	.
4E/	.	.	.	.	.	.	.
4D/	.	.	.	.	.	.	.
=141-	=141-	=141-	=141-	=141-	=141-	=141-	=141-
0C	-du(m)	0c]	.	0el	-du(m)	0cc]	.
*	*Xij	*	*	*	*Xij	*	*
==	==	==	==	==	==	==	==
*-	*-	*-	*-	*-	*-	*-	*-
!!!system-decoration: [(*)]
!!!RDF**kern: < = below
!!!RDF**kern: l = terminal long
!!!AIN: 1 alto 1 bass 1 soprn 1 tenor
!!!ENC: Filip Voros
!!!END: 2022-01-15
!!!ENC: Andrzej Kubiczek
!!!END: 2022-01-23
